X: 1
T:The Oyster Wives' Rant
M:C
L:1/8
Q:80
C:Trad. arr. M. Grey
S:Reel
K:HP
B|:
{gef}e2{A}ed{g}eA{gAGAG}A2|
{gdedc}d2{g}dB{g}GA{g}Bd|
{gef}e2{A}ed{g}efge|  !
{g}dB{gf}g2{a}B{d}A{e}A{d}B:| |:
{gef}ed{g}ef{gf}g2{a}fe|
{gdedc}d2{g}eB{g}de{g}Bd|  !
{gef}ed{g}ef{a}gage|
{g}dB{gf}g2{a}B{d}A{e}A{d}B:|
